X:039
T:Untitled TS.039
M:6/8
L:1/8
Q:3/8=120
S:Thomas Sands’ MS,1810,Lincolnshire
C:Prefixed as ‘No.27′ in MS
R:jig
O:England;Lincolnshire
Z:vmp.Ruairidh Greig, 2011
K:D
(A/G/)|FGA GBc|dcB A2G|FGA dcd|eEE E2(A/G/)|
FGA ABc|dcB A2G|FAd fge|fddd2:|
|:c/d/|ecA ABA|ecAA2(B/c/)|dcB AGF|GEEE2(c/d/)|
ecA ABA|ecA A2G|FAd edc|dd>dd2:|
|:(d/e/)|f2d BdB|e2c ABc|dcB AGF|GEEE2(d/c/)|
dfd BdB|cec ABc|dcB ABG|FDDD2:|]

